dist/icons/svgs/hourglass-solid.svg

<svg xmlns="http://www.w3.org/2000/svg" width="24" height="24" fill="currentcolor" class="icon-hourglass-solid" viewBox="0 0 24 24">
  <path d="M5 3.25C5 2.58594 5.54688 2 6.25 2H7.5H17.5H18.75C19.4141 2 20 2.58594 20 3.25C20 3.95312 19.4141 4.5 18.75 4.5V4.92969C18.75 6.60938 18.0859 8.21094 16.9141 9.38281L14.2578 12L16.9141 14.6562C18.0859 15.8281 18.75 17.4297 18.75 19.0703V19.5C19.4141 19.5 20 20.0859 20 20.75C20 21.4531 19.4141 22 18.75 22H17.5H7.5H6.25C5.54688 22 5 21.4531 5 20.75C5 20.0859 5.54688 19.5 6.25 19.5V19.0703C6.25 17.4297 6.875 15.8281 8.04688 14.6562L10.7031 12L8.04688 9.38281C6.875 8.21094 6.25 6.60938 6.25 4.92969V4.5C5.54688 4.5 5 3.95312 5 3.25ZM8.75 4.5V4.92969C8.75 5.94531 9.14062 6.88281 9.84375 7.58594L12.5 10.2422L15.1172 7.58594C15.8203 6.88281 16.25 5.94531 16.25 4.92969V4.5H8.75ZM8.75 19.5H16.25V19.0703C16.25 18.0938 15.8203 17.1562 15.1172 16.4531L12.5 13.7969L9.84375 16.4531C9.14062 17.1562 8.75 18.0938 8.75 19.1094V19.5391V19.5Z"/>
</svg>

<svg xmlns="http://www.w3.org/2000/svg" width="24" height="24" fill="currentColor" class="icon-hourglass-solid" viewBox="0 0 24 24">
  <path d="M5 3.25C5 2.586 5.547 2 6.25 2h12.5c.664 0 1.25.586 1.25 1.25 0 .703-.586 1.25-1.25 1.25v.43c0 1.68-.664 3.28-1.836 4.453L14.258 12l2.656 2.656a6.27 6.27 0 0 1 1.836 4.414v.43c.664 0 1.25.586 1.25 1.25 0 .703-.586 1.25-1.25 1.25H6.25C5.547 22 5 21.453 5 20.75c0-.664.547-1.25 1.25-1.25v-.43c0-1.64.625-3.242 1.797-4.414L10.703 12 8.047 9.383C6.875 8.21 6.25 6.609 6.25 4.93V4.5C5.547 4.5 5 3.953 5 3.25M8.75 4.5v.43a3.72 3.72 0 0 0 1.094 2.656l2.656 2.656 2.617-2.656c.703-.703 1.133-1.64 1.133-2.656V4.5zm0 15h7.5v-.43c0-.976-.43-1.914-1.133-2.617L12.5 13.797l-2.656 2.656A3.72 3.72 0 0 0 8.75 19.11v.43z"/>
</svg>
